!!!!SEGMENT: pl-kc--40102-iii-1-saf--002-040_zielenski-mikolaj--communiones-totius-anni-in-festo-s-stanislai-ego-sum-pastor-bonus.krn
!!!cenid: 16xx:1571
!!!COM: Zieleński, Mikołaj
!!!COM-rismid: pe30013481
!!!CDT:
!!!CNT: Polish
!!!GTL: Communiones totius anni
!!!OTL: In festo S. Stanislai/Ego sum pastor bonus
!!!OMV: 040
!!!PDT: 1611
!!!AGN:
!!!SMS-siglum: PL-Kc
!!!SMS-shelfmark: 40102 III/1 Saf.
!!!SMS-shelfwork: 002-040 G
!!!SMS-variant:
!!!SMS-altvar:
!!!NIFC-rismid: 990069887
!!!URL-scan: https://cyfrowe.mnk.pl/dlibra/publication/24235/edition/23926/content?ref=desc
!!!ONB-nifc: UWAGA: str. 65-66. Numer w źródle: 47. Uwaga: W xml metrum 2/1 do źródłowego C| i odpowiednio 3/1 do 3/2
!!!key:
**kern	**kern	**kern	**kern	**kern
*part5	*part4	*part3	*part2	*part1
*staff5	*staff4	*staff3	*staff2	*staff1
*I"	*I"	*I"	*I"	*I"Organo
*I'	*I'	*I'	*I'	*I'org
*Iorgan	*Iorgan	*Iorgan	*Iorgan	*Iorgan
*ICklav	*ICklav	*ICklav	*ICklav	*I'org
*clefF4	*clefC4	*clefC3	*clefC1	*clefG2
*k[b-]	*k[b-]	*k[b-]	*k[b-]	*k[b-]
*F:	*F:	*F:	*F:	*F:
*M2/1	*M2/1	*M2/1	*M2/1	*M2/1
*met(C|)	*met(C|)	*met(C|)	*met(C|)	*met(C|)
=1	=1	=1	=1	=1
!	!	!	!	!LO:TX:a:t=47. In feſto S.Stanislai. à 5.
!	!	!	!	!LO:TX:b:t=Ego ſum paſtor bonus.
00r	00r	1f	1r	0r
.	.	2f\	1cc	.
.	.	2e\	.	.
=2-	=2-	=2-	=2-	=2-
.	.	2f\	2cc\	1ff
!	!	!	!LO:N:acc=#	!
.	.	2d\	2bn\	.
.	.	(1c	2cc\	2ff\
.	.	.	[y2a\	2ee\
=3	=3	=3	=3	=3
!	!	!	!LO:N:xstem:cue	!
00r	0r	2.d\)	4a\]	2ff\
.	.	.	4f/	.
.	.	.	2b-\	2dd\
.	.	4e\	.	.
.	.	1f	4a\	4cc\
.	.	.	4g\	4b-\
.	.	.	4a\	4cc\
.	.	.	4b-\	4dd\
=4-	=4-	=4-	=4-	=4-
.	1c	2.g\	1cc	4ee\
.	.	.	.	4dd\
.	.	.	.	4ee\
.	.	4f\	.	4ff\
.	2c\	2e\	2cc\	2.gg\
!	!LO:N:acc=#	!	!	!
.	2Bn\	2d\	[y2g/	.
.	.	.	.	4ff\
=5	=5	=5	=5	=5
!	!	!	!LO:N:xstem:cue	!
1r	2c\	2e\	4g/]	2.ee\
.	.	.	8f#X/	.
.	.	.	8e/	.
.	2A/	2c/	2f#/	.
.	.	.	.	8dd\
.	.	.	.	8cc\
*	*lig	*	*	*
!	!	!	!	!LO:N:acc=#
1r	1G	4d\	2g/	8bn/
.	.	.	.	8g/
.	.	4c/	.	2cc\
.	.	4d\	2g/	.
!	!	!	!	!LO:N:acc=#
.	.	4G/	.	4bn/
=6-	=6-	=6-	=6-	=6-
1F	1F	2.c/	4a\	4cc\
.	.	.	4g/	4bny/
.	.	.	4f/	4a/
.	.	4B-/	4g/	4g/
*	*Xlig	*	*	*
2F\	[y1c	2A/	4a\	2f/
.	.	.	4f/	.
2E\	.	2G/	2g/	2cc\
=7	=7	=7	=7	=7
!	!LO:N:vis=4:xstem:cue	!	!	!
2F\	2c\]	1F	2a\	2cc\
2D/	2F/	.	2bn\	2dd\
4C/	2G/	1c	2.cc\	2ee\
4BB-/	.	.	.	.
4AA/	2.A/	.	.	2cc\
4GG/	.	.	4b\	.
=8-	=8-	=8-	=8-	=8-
2FF/	.	0r	4a\	2.cc\
.	4B-\	.	4g\	.
2.F\	4c\	.	4a\	.
.	4d\	.	4b-\	4b-/
.	2c\	.	2cc\	2a/
4E\	.	.	.	.
4D/	2F/	.	[y2dd\	[y2ff\
4C/	.	.	.	.
=9	=9	=9	=9	=9
!	!	!	!LO:N:xstem:cue	!LO:N:xstem:cue
2BB-/	1G	0r	4dd\]	4ff\]
.	.	.	4cc\	4ee\
2C/	.	.	4cc\	4ee\
!	!	!	!LO:N:acc=#	!
.	.	.	8bn\	8dd\
.	.	.	8a\	8cc\
1GG	1G	.	4b\	4dd\
.	.	.	2cc\	4ee\
.	.	.	.	2dd\
!	!	!	!LO:N:acc=#	!
.	.	.	4bn\	.
=10-	=10-	=10-	=10-	=10-
!LO:SIC:v:s=1C	!	!	!	!
1BB-	2G/	2r	1cc	1ee
.	2c\	2e\	.	.
1r	2c\	2e\	1g	1r
!	!LO:N:acc=#	!	!	!
.	2Bn\	2d\	.	.
=11	=11	=11	=11	=11
00r	2c\	2e\	2r	0r
.	2A/	2c/	2cc\	.
*	*lig	*	*	*
.	1G	1d	2cc\	.
!	!	!	!LO:N:acc=#	!
.	.	.	2bn\	.
=12-	=12-	=12-	=12-	=12-
*	*col	*	*	*
.	2.A\	1c	2cc\	2r
.	.	.	2a\	2ff\
*	*Xlig	*	*	*
.	4B-\	.	.	.
*	*Xcol	*	*	*
.	4c\	1r	1g	2ff\
.	4d\	.	.	.
.	[<2c\	.	.	2ee\
=13	=13	=13	=13	=13
1r	4c\]	1r	2f/	2ff\
!	!LO:N:acc=#	!	!	!
.	8Bn\	.	.	.
.	8A\	.	.	.
.	2B\	.	2g/	2dd\
2r	1c	2r	1.g	2.ee\
2C/	.	2e\	.	.
.	.	.	.	4dd\
=14-	=14-	=14-	=14-	=14-
2C/	2.G/	2e\	.	4ee\
.	.	.	.	4cc\
!LO:N:acc=#	!	!	!	!
2BBn/	.	2d\	2g/	2dd\
.	4F/	.	.	.
2C/	4E/	2e\	2g/	2g/
.	4D/	.	.	.
2AA/	2G/	2c/	4a\	4cc\
.	.	.	4g/	4b-/
*custos:D	*custos:F	*custos:d	*custos:f	*custos:a
!!linebreak:original
=15	=15	=15	=15	=15
2.D/	2.F/	2d\	4f/	4a/
.	.	.	4d/	4f/
.	.	2A/	2.dd\	2.ff\
8C/	4G/	.	.	.
8BB-/	.	.	.	.
2.AA/	2.A/	2r	.	.
.	.	.	8cc\	8ee\
.	.	.	8b-\	8dd\
.	.	2.e\	4cc\	4cc\
4BB-/	8G/	.	8b-\	4dd\
.	8F/	.	8a\	.
=16-	=16-	=16-	=16-	=16-
2C/	2E/	.	2g/	4ee\
.	.	8f\	.	4cc\
.	.	8g\	.	.
2FF/	2F/	2a\	2cc\	2.ff\
1C	1G	2g\	1cc	.
.	.	.	.	8ee\
.	.	.	.	8dd\
.	.	2g\	.	2ee\
=17	=17	=17	=17	=17
*M3/2	*M3/2	*M3/2	*M3/2	*M3/2
0FF	0F	0a	0cc	0.ff
1F	1c	1f	1a	.
=18-	=18-	=18-	=18-	=18-
!	!	!	!	!LO:N:vis=0
2D/	0f	0a	0dd	0.r
2E\	.	.	.	.
2F\	.	.	.	.
2G\	.	.	.	.
2A\	1e	1a	1cc	.
2AA/	.	.	.	.
=19-	=19-	=19-	=19-	=19-
*	*col	*col	*	*
!	!	!	!	!LO:N:vis=00
2BB-/	0d	0f	0b-	00.r
2C/	.	.	.	.
2D/	.	.	.	.
2E\	.	.	.	.
1F	1c	1f	1a	.
=20-	=20-	=20-	=20-	=20-
1C	1e	1g	0cc	.
*lig	*	*	*	*
1G	0d	0g	.	.
!	!	!	!LO:N:acc=#	!
1GG	.	.	1bn	.
*Xlig	*Xcol	*Xcol	*	*
=21	=21	=21	=21	=21
0.C	0e	0g	0cc	1r
.	.	.	.	1r
.	1c	1g	1cc	1ee
=22-	=22-	=22-	=22-	=22-
!LO:N:vis=0	!	!	!	!
0.r	2F/	0a	0cc	0ff
.	2G/	.	.	.
.	2A/	.	.	.
.	2B-\	.	.	.
.	2c\	1g	1cc	1ee
.	2C/	.	.	.
=23-	=23-	=23-	=23-	=23-
*	*	*	*	*col
!LO:N:vis=00	!	!	!	!
00.r	2D/	0f	0a	0dd
.	2E/	.	.	.
.	2F/	.	.	.
.	2G/	.	.	.
.	2A/	1f	1a	1cc
.	2F/	.	.	.
=24-	=24-	=24-	=24-	=24-
.	1B-	0d	1.f	1dd
.	0G	.	.	0b-
*	*	*	*	*Xcol
.	.	.	4e/	.
.	.	.	4d/	.
.	.	2c/	1e	.
.	.	2B-/	.	.
=25	=25	=25	=25	=25
1r	0F	0c	0f	0a
1r	.	.	.	.
1C	1G	1c	1e	2r
.	.	.	.	2ryy
=26-	=26-	=26-	=26-	=26-
2FF/	1.c	1.f	1.a	1r
2GG/	.	.	.	.
2AA/	.	.	.	1r
2BB-/	4B-\	2d\	4g/	.
.	4A/	.	4f/	.
1C	1G	1c	1e	1g
=27-	=27-	=27-	=27-	=27-
1FF	2F/	1.c	0f	1.cc
.	2G/	.	.	.
1r	2A/	.	.	.
.	2B-\	2d\	.	4b-/
.	.	.	.	4a/
1C	1c	1e	1r	1g
=28-	=28-	=28-	=28-	=28-
2FF/	0c	1.f	1r	0a
2GG/	.	.	.	.
2AA/	.	.	1r	.
2BB-/	.	4e\	.	.
.	.	4d\	.	.
1C	1G	2e\	1g	1g
.	.	2f\	.	.
=29	=29	=29	=29	=29
1GG	2G/	0g	1.b-	1.dd
.	2A/	.	.	.
1r	2B-\	.	.	.
.	2c\	.	4a\	4cc\
.	.	.	4g/	4b-/
1D	1d	1r	1f#X	1a
=30-	=30-	=30-	=30-	=30-
2GG/	0d	1r	0g	0b-
2AA/	.	.	.	.
2BB-/	.	1r	.	.
2C/	.	.	.	.
1D	1A	1d	1f#X	1a
=31-	=31-	=31-	=31-	=31-
*	*	*lig	*	*
1GG	2G/	1d	1.b-	1.dd
.	2A/	.	.	.
1r	2B-\	1G	.	.
.	2c\	.	4a\	4cc\
.	.	.	4g/	4b-/
*	*	*Xlig	*	*
1D	1d	1A	1f#X	1a
=32-	=32-	=32-	=32-	=32-
2GG/	0d	0G	0g	0b-
2AA/	.	.	.	.
2BB-/	.	.	.	.
2C/	.	.	.	.
1D	1A	1r	1f#X	1a
=33	=33	=33	=33	=33
0GG	0G	1r	2g/	2b-/
.	.	.	2a\	2cc\
.	.	1r	2b-\	2dd\
.	.	.	2g/	2ee\
1D	1F	1A	1a	1ff
=34-	=34-	=34-	=34-	=34-
!	!LO:N:vis=0	!	!	!
2BB-/	1.F	1.f	0b-	1.dd
2C/	.	.	.	.
2D/	.	.	.	.
!	!LO:N:vis=4	!	!	!
2E\	2G/	4e\	.	4cc\
.	.	4d\	.	4b-/
1F	1A	2c/	1f	2a/
.	.	2d\	.	2b-/
=35-	=35-	=35-	=35-	=35-
*	*	*	*	*lig
*	*	*	*	*col
1.C	1G	1.e	1g	1cc
.	0E	.	1.cc	1g
2BB-/	.	2d\	.	.
*	*	*	*	*Xlig
1AA	.	1c	.	1a
.	.	.	2b-\	.
=36-	=36-	=36-	=36-	=36-
1FF	1F	0f	1a	1cc
0C	0G	.	0g	0cc
*	*	*	*	*Xcol
.	.	1e	.	.
=37	=37	=37	=37	=37
*M2/1	*M2/1	*M2/1	*M2/1	*M2/1
*met(C|)	*met(C|)	*met(C|)	*met(C|)	*met(C|)
1FF	2F/	2f\	2a\	2cc\
.	4F/	4f\	4a\	4cc\
.	4F/	4f\	4a\	4cc\
1r	2c\	2f\	2b-\	2dd\
.	4F/	4f\	4a\	4cc\
.	2G/	2d\	2g/	2b-/
=38-	=38-	=38-	=38-	=38-
0r	.	.	.	.
.	4E-X/	4G/	4g/	4b-/
.	2C/	2e-X\	2g/	2cc\
.	1D	2d\	2f#X/	2a/
.	.	4d\	4a\	4dd\
.	.	4d\	4a\	4dd\
=39	=39	=39	=39	=39
0r	0r	2B-/	2dd\	2ff\
.	.	4c/	4cc\	4ee\
!	!	!	!LO:N:acc=#	!
.	.	2g\	2bn\	2dd\
.	.	4a\	4cc\	4cc\
!	!	!	!LO:N:acc=#	!
.	.	2g\	2bn\	2dd\
*custos:C	*custos:G	*custos:cc	*custos:cc	*custos:ee
!!linebreak:original
=40-	=40-	=40-	=40-	=40-
2r	2r	1c	1cc	1ee
4C/	4G/	.	.	.
4C/	4G/	.	.	.
2AA/	2A/	4c/	4cc\	4ee\
.	.	4c/	4cc\	4ee\
2D/	2F/	2d\	2a\	2ff\
=41	=41	=41	=41	=41
2r	2r	2B-/	1b-	1dd
4BB-/	4F/	4B-/	.	.
4BB-/	4F/	4B-/	.	.
2F\	2A/	2c/	4a\	4cc\
.	.	.	4a\	4cc\
2FF/	2F/	2c/	2a\	2ff\
=42-	=42-	=42-	=42-	=42-
4C/	4G/	4c/	2g/	2ee\
4C/	4G/	4c/	.	.
4.AA/	4.A/	4.c/	2cc\	4ff\
.	.	.	.	4ee\
8AA/	8A/	8c/	.	.
2BB-/	2F/	2d\	1b-	4dd\
.	.	.	.	4cc\
2GG/	2G/	[y2g\	.	2dd\
=43	=43	=43	=43	=43
!	!	!LO:N:xstem:cue	!	!
1D	1A	4g\]	1a	2.dd\
.	.	8f#X\	.	.
.	.	8e\	.	.
.	.	2f#\	.	.
.	.	.	.	4cc\
!	!	!	!	!LO:N:acc=#
4GG/	4d\	4g\	1g	2bn/
2G\	2B-\	2d\	.	.
.	.	.	.	2r
4E\	4c\	4e\	.	.
=44-	=44-	=44-	=44-	=44-
2F\	2A/	2c/	0r	0r
4D/	4d\	4f#y\	.	.
4D/	2d\	2f#y\	.	.
1A	.	.	.	.
.	8c#X\	8e\	.	.
!	!LO:SIC:v:s=8Bn\	!	!	!
.	8B-\	8d\	.	.
.	2c#\	2e\	.	.
=45	=45	=45	=45	=45
2D/	2d\	4f\	4r	4r
.	.	2d\	2dd\	2ff\
2r	2r	.	.	.
.	.	4A/	4cc\	4ee\
0r	0r	2B-/	2b-\	2dd\
.	.	4B-/	4b-\	4dd\
.	.	4f\	4a\	4cc\
=46-	=46-	=46-	=46-	=46-
.	.	4g\	1g	1b-
.	.	4A/	.	.
.	.	4B-/	.	.
.	.	4c/	.	.
4r	4r	4d\	4f#X/	4a/
2D/	2A/	2d\	2a\	2ff\
4D/	4A/	4d\	4a\	4ff\
=47	=47	=47	=47	=47
2F\	2A/	2c/	2a\	2cc\
4C/	4G/	4g\	4cc\	4ee-X\
4C/	4G/	4g\	2cc\	4ee-\
2G\	1G	2.g\	.	1dd
!	!	!	!LO:N:acc=#	!
.	.	.	8bn\	.
.	.	.	8a\	.
2GG/	.	.	2b\	.
.	.	4f\	.	.
=48-	=48-	=48-	=48-	=48-
2C/	2G/	2e\	2cc\	2cc\
1C	1G	1g	1cc	1ee-y
2AA/	2C/	2a\	2cc\	2ff\
=49	=49	=49	=49	=49
2BB-/	1D	2f\	1b-	2dd\
2GG/	.	4g\	.	2dd\
.	.	4f\	.	.
2AA/	2A/	4e\	2.a\	2.cc\
.	.	4c/	.	.
4GG/	2A/	2f\	.	.
4FF/	.	.	4b-\	4dd\
=50-	=50-	=50-	=50-	=50-
0C	2G/	2g\	2cc\	4ee\
.	.	.	.	4cc\
.	2F/	2a\	2cc\	2.ff\
.	1G	1g	1cc	.
.	.	.	.	8ee\
.	.	.	.	8dd\
.	.	.	.	2ee\
=51	=51	=51	=51	=51
*M3/2	*M3/2	*M3/2	*M3/2	*M3/2
0FF	0F	0a	0cc	0.ff
1F	1c	1f	1a	.
=52-	=52-	=52-	=52-	=52-
!	!	!	!	!LO:N:vis=0
2D/	0f	0a	0dd	0.r
2E\	.	.	.	.
2F\	.	.	.	.
2G\	.	.	.	.
2A\	1e	1a	1cc	.
2AA/	.	.	.	.
=53-	=53-	=53-	=53-	=53-
*	*col	*col	*	*
!	!	!	!	!LO:N:vis=00
2BB-/	0d	0f	0b-	00.r
2C/	.	.	.	.
2D/	.	.	.	.
2E\	.	.	.	.
1F	1c	1f	1a	.
=54-	=54-	=54-	=54-	=54-
1C	1e	1g	0cc	.
1G	0d	0g	.	.
*	*Xcol	*Xcol	*	*
!	!	!	!LO:N:acc=#	!
1GG	.	.	1bn	.
=55	=55	=55	=55	=55
0.C	0e	0g	0cc	1r
.	.	.	.	1r
.	1c	1g	1cc	1ee
=56-	=56-	=56-	=56-	=56-
!LO:N:vis=0	!	!	!	!
0.r	2F/	0a	0cc	0ff
.	2G/	.	.	.
.	2A/	.	.	.
.	2B-\	.	.	.
.	2c\	1g	1cc	1ee
.	2C/	.	.	.
=57-	=57-	=57-	=57-	=57-
*	*	*	*	*col
!LO:N:vis=00	!	!	!	!
00.r	2D/	0f	0a	0dd
.	2E/	.	.	.
.	2F/	.	.	.
.	2G/	.	.	.
.	2A/	1f	1a	1cc
.	2F/	.	.	.
=58-	=58-	=58-	=58-	=58-
.	1B-	0d	1.f	1dd
.	0G	.	.	0b-
*	*	*	*	*Xcol
.	.	.	4e/	.
.	.	.	4d/	.
.	.	2c/	1e	.
.	.	2B-/	.	.
=59	=59	=59	=59	=59
1r	0F	0c	0f	0a
1r	.	.	.	.
1C	1G	1c	1e	1r
=60-	=60-	=60-	=60-	=60-
2FF/	1.c	1.f	1.a	1r
2GG/	.	.	.	.
2AA/	.	.	.	1r
2BB-/	4B-\	2d\	4g/	.
.	4A/	.	4f/	.
1C	1G	1c	1e	1g
=61-	=61-	=61-	=61-	=61-
1FF	2F/	1.c	0f	1.cc
.	2G/	.	.	.
1r	2A/	.	.	.
.	2B-\	2d\	.	4b-/
.	.	.	.	4a/
1C	1c	1e	1r	1g
=62-	=62-	=62-	=62-	=62-
2FF/	0c	1.f	1r	0a
2GG/	.	.	.	.
2AA/	.	.	1r	.
2BB-/	.	4e\	.	.
.	.	4d\	.	.
1C	1G	2e\	1g	1g
.	.	2f\	.	.
*custos:GG	*custos:G	*custos:g	*custos:b	*custos:dd
!!pagebreak:original
=63	=63	=63	=63	=63
1GG	2G/	0g	1.b-	1.dd
.	2A/	.	.	.
1r	2B-\	.	.	.
.	2c\	.	4a\	4cc\
.	.	.	4g/	4b-/
1D	1d	1r	1f#X	1a
=64-	=64-	=64-	=64-	=64-
2GG/	0d	1r	0g	0b-
2AA/	.	.	.	.
2BB-/	.	1r	.	.
2C/	.	.	.	.
1D	1A	1d	1f#X	1a
=65-	=65-	=65-	=65-	=65-
*	*	*lig	*	*
1GG	2G/	1d	1.b-	1.dd
.	2A/	.	.	.
1r	2B-\	1G	.	.
.	2c\	.	4a\	4cc\
.	.	.	4g/	4b-/
*	*	*Xlig	*	*
1D	1d	1A	1f#X	1a
=66-	=66-	=66-	=66-	=66-
2GG/	0d	0G	0g	0b-
2AA/	.	.	.	.
2BB-/	.	.	.	.
2C/	.	.	.	.
1D	1A	1r	1f#X	1a
=67	=67	=67	=67	=67
0GG	0G	1r	2g/	2b-/
.	.	.	2a\	2cc\
.	.	1r	2b-\	2dd\
.	.	.	2g/	2ee\
1D	1F	1A	1a	1ff
=68-	=68-	=68-	=68-	=68-
2BB-/	1.F	1.f	0b-	1.dd
2C/	.	.	.	.
2D/	.	.	.	.
2E\	2G/	4e\	.	4cc\
.	.	4d\	.	4b-/
1F	1A	2c/	1f	2a/
.	.	2d\	.	2b-/
=69-	=69-	=69-	=69-	=69-
*	*	*	*	*lig
*	*	*	*	*col
1.C	1G	1.e	1g	1cc
.	0E	.	1.cc	1g
2BB-/	.	2d\	.	.
*	*	*	*	*Xlig
1AA	.	1c	.	1a
.	.	.	2b-\	.
=70-	=70-	=70-	=70-	=70-
1FF	1F	0f	1a	1cc
0C	0G	.	0g	0cc
*	*	*	*	*Xcol
.	.	1e	.	.
=71	=71	=71	=71	=71
*M2/1	*M2/1	*M2/1	*M2/1	*M2/1
*met(C|)	*met(C|)	*met(C|)	*met(C|)	*met(C|)
2FF/	4F/	2.f\	1.a	1.cc
.	4G/	.	.	.
2.F\	4A/	.	.	.
.	4B-\	4g\	.	.
.	2c\	4a\	.	.
4E\	.	4g\	.	.
*	*lig	*	*	*
4D/	1F/	4f\	2.dd\	2.ff\
4C/	.	4e\	.	.
=72-	=72-	=72-	=72-	=72-
1.BB-	.	2.d\	.	.
.	.	.	4cc\	4ee\
.	1B-	.	4b-\	4dd\
.	.	4e\	4cc\	4cc\
.	.	2f\	2dd\	4b-/
.	.	.	.	4f/
*	*Xlig	*	*	*
2AA/	2c\	2f\	2a\	[<2cc\
=73	=73	=73	=73	=73
*	*lig	*	*	*
0BB-	1F	0d	0f	2cc\]
.	.	.	.	4b-/
.	.	.	.	4a/
.	1.B-	.	.	4b-/
.	.	.	.	4f/
.	.	.	.	2b-/
*	*Xlig	*	*	*
=74-	=74-	=74-	=74-	=74-
0FFl	.	0cl	0fl	0ccl
.	4A/	.	.	.
.	4G/	.	.	.
.	1Al	.	.	.
==	==	==	==	==
*-	*-	*-	*-	*-
!!!system-decoration: [(s1,s2,s3,s4,s5)]
!!!RDF**kern: l = terminal long
!!!RDF**kern: i = editorial accidental
!!!RDF**kern: > = above
!!!RDF**kern: < = below
!!!AIN: 5 organ
!!!ENC: Katarzyna Serwa
!!!END: 2021-12-25
!!!ENC: Andrzej Gręziak
!!!END: 2021-12-21
